X:1
T:QA 6
L:1/8
M:4/4
V:1
V:2 clef=bass
K:C
[V:1] z c A/2 c/2 e/2 g/2 e d c | BcdA AG A2 | GcGF EFED | ^CDEF A ^c3 :|
[V:2] [D,F,C]8 | [G,,F,B,]8 | [C,E,B,]8 | [A,,G,^C]8 :|